!!!COM: Aberle, Juan
!!!CDT: 1846-1930
!!!OTL: National Anthem, El Salvador
!!!ENC: Davis, Matthew J.
!!Vocal Line Only
**kern
*clefG2
*k[b-e-a-d-g-]
*X:
*M4/4
=1-
1r
=2
1r
=3
1r
=4
1r
=5
1r
=6
2r
!Chorus
4d-
4e-
=7
4g-
8f
16r
16f
4f
8.g-
16g-
=8
4b-
8a-
8r
4a-
8.dd-
16cc
=9
6cc
6b-
6a-
8g
16r
16g
4g
8.cc
16b-
=10
6b-
6a-
6g-
8f
8r
4d-
4e-
=11
4g-
8f
16r
16f
4f
8.g-
16g-
=12
4b-
8a-
8r
4a-
8.b-
16cc
=13
4dd-
8.dd-
16ff
4ee-
6cc
6dd-
6b-
=14
4a-
4r
2r
=15
1r
=16
2r
4d-
4e-
=17
4g-
8f
16r
16f
4f
8.g-
16g-
=18
4b-
8a-
8r
4a-
8.dd-
16cc
=19
6cc
6b-
6a-
8g
16r
16g-
4g-
8.cc
16b-
=20
6b-
6a-
6g-
8f
8r
4d-
4e-
=21
4g-
8f
16r
16f
4f
8.g-
16g-
=22
4b-
8a-
8r
4a-
8.b-
16cc
=23
[6dd-
6dd-]
6cc
[6dd-
6dd-]
8ddn
[6ee-
6ee-]
6b-
6b-
6cc
6a-
=24
4dd-
4r
2r
=25
4r
4a-
4b-
4cc
=26
4dd-
4r
2r
=27
4r
4a-
4b-
4cc
=28
4dd-
4r
4r
8.cc
16cc
=29
4dd-
4r
4r
8.cc
16cc
=30
[1dd-
=31
4dd-]
4r
2r
=32
2r
4r
!Fine
8.e-
16e-
==33
*k[b-e-a-g-]
2a-
[6a-
6a-]
6g
6b-
6a-
6f
=34
2e-
8c
8r
6e-
6b-
6a-
=35
8.a-
16g
[4d-
6d-]
6r
6c
6d-
[6a-
12a-]
12f
=36
4f
4e-
4r
8.e-
16e-
=37
2a-
6a-
6g
6a-
6b-
6a-
6f
=38
2e-
8c
8r
6e-
6f
6f#
=39
[4g
6g]
6f
6e-
[4dn
6dn]
6e-
6dn
=40
4c
4r
4r
8.c
16c
=41
8.d-
16c
8.B-
16c
8.d-
16e-
8.f
16g
=42
4g
[4a-
8a-]
8r
8.a-
16b-
=43
4a-
8.g
16dd-
4dd-
8.f
16g
=44
4f
8.e-
16cc
8cc
8r
8.c
16c
=45
8.d-
16c
8.B-
16c
8.d-
16e-
8.f
16g
=46
8.g
16b-
[4a-
8a-
8r
8.a-
16b-
=47
[4cc
6cc]
6a-
6f
[4e-
6e-]
6d-
6B-
=48
4A-
4r
4r
8.a-
16a-
=49
[2a-
6a-]
6f
6g
6a-
6d-
6f
=50
2e-
8c
8r
8.a-
16a-
=51
[2a-
6a-]
6f-
6g-
6a-
8d-
6f-
=52
2e-
4r
8.e-
16e-
=53
[2e-
6e-
6dn
6e-
6b--
6g-
6e-
=54
2a-
8c-
8r
8.f
16e-
=55
[4dn
6dn]
6c#
6dn
[4cc-
6cc-]
6b-
6a-
=56
[4e-
6e-]
6dn
6e-
[4ccn
6ccn]
6b-
6a-
=57
[4g
6g]
6f
6c
[4e-
6e-]
6d-
6B-
=58
4A-
4r
2r
*k[b-e-a-d-g-]
!D.C. al Fine (measure 1 through the 3rd beat of measure 32)
==|!
*-
